!!!!SEGMENT: pl-kj--bj-muz-1605-iii-2_zelenski-wladyslaw--cracovienne-op-47-nr-2.krn
!!!cenid: 18xx:3724
!!!COM: Żeleński, Władysław
!!!COM-rismid: pe41024455
!!!CDT:
!!!CNT:
!!!OTL: Cracovienne op. 47 nr 2
!!!PDT: 1894
!!!AGN:
!!!SMS-siglum: PL-Kj
!!!SMS-shelfmark: BJ Muz. 1605 III 2
!!!SMS-shelfwork: W
!!!SMS-variant:
!!!SMS-altvar:
!!!NIFC-rismid:
!!!URL-scan: https://polona.pl/item/suite-de-danses-polonaises-pour-orchestre-op-47-2-cracovienne,Nzk3NTcwNzc/0/#info:metadata
!!!ONB-nifc:
**kern	**kern	**dynam	**kern	**kern	**dynam
*part2	*part2	*part2	*part1	*part1	*part1
*staff4	*staff3	*	*staff2	*staff1	*
*I"PIANO. Secondo.	*I"PIANO. Secondo.	*	*I"PIANO. Primo.	*I"PIANO. Primo.	*
*I'pf 2	*I'pf 2	*	*I'pf 1	*I'pf 1	*
*Ipiano	*Ipiano	*	*Ipiano	*Ipiano	*
*ICklav	*ICklav	*	*ICklav	*ICklav	*
*clefF4	*clefF4	*	*clefG2	*clefG2	*
*k[f#]	*k[f#]	*	*k[f#]	*k[f#]	*
*G:	*G:	*	*G:	*G:	*
*M2/4	*M2/4	*	*M2/4	*M2/4	*
=1	=1	=1	=1	=1	=1
!	!	!	!	!LO:TX:B:b:t=2	!
!	!LO:TX:B:a:t=Allegro con brio.	!	!	!LO:TX:a:B:t=Allegro con brio.	!
4DD/	4D\	f	2r	2r	.
4GGG/	4GG/	.	.	.	.
=2	=2	=2	=2	=2	=2
4DD/	4D\	.	2r	2r	.
4GGG/	4GG/	.	.	.	.
=3	=3	=3	=3	=3	=3
4DD/	4d 4D\	.	4f#/	(16a/LL	f
.	.	.	.	16cc/	.
.	.	.	.	16b/	.
.	.	.	.	16a/JJ	.
4GG 4GGG/	4d 4G\	.	4fn/	8b/L)	.
.	.	.	.	8g'/J	.
=4	=4	=4	=4	=4	=4
4CC/	4G 4C\	.	4e/	8cc'\L	.
.	.	.	.	8ee'\J	.
4GG 4GGG/	4G 4C\	ff	4e/	4gg 4cc\	ff
=5	=5	=5	=5	=5	=5
4DD/	4d 4D\	f	4f#/	(16a/LL	.
.	.	.	.	16cc/	.
.	.	.	.	16b/	.
.	.	.	.	16a/JJ	.
4GG 4GGG/	4d 4G\	.	4fn/	8b/L)	.
.	.	.	.	8g'/J	.
=6	=6	=6	=6	=6	=6
4CC/	4G 4C\	.	4e/	4cc\	.
4GG 4GGG/	4G 4C\	ff	4cc 4g 4e/	4ccc 4gg 4ee\	ff
=7	=7	=7	=7	=7	=7
4DD/	4d 4D\	f	4f#/	(16a/LL	f
.	.	.	.	16cc/	.
.	.	.	.	16b/	.
.	.	.	.	16a/JJ	.
4GG 4GGG/	4d 4G\	.	4fn/	8b/L)	.
.	.	.	.	8g'/J	.
=8	=8	=8	=8	=8	=8
4CC/	4G 4C\	.	4e/	8cc'\L	.
.	.	.	.	8ee'\J	.
4GG 4GGG/	4G 4C\	ff	4e/	4gg 4cc\	ff
!LO:LB:g=original	!LO:LB:g=original	!	!LO:LB:g=original	!LO:LB:g=original	!
=9	=9	=9	=9	=9	=9
4DD/	4d 4D\	f	4f#/	(16a/LL	f
.	.	.	.	16cc/	.
.	.	.	.	16b/	.
.	.	.	.	16a/JJ	.
4GG 4GGG/	4d 4G\	.	4fn/	8b/L)	.
.	.	.	.	8g'/J	.
=10	=10	=10	=10	=10	=10
4CC/	4G 4C\	.	4e/	4cc\	.
4GG 4GGG/	4G 4C\	ff	4cc 4g 4e/	4ccc 4gg 4ee\	ff
=11	=11	=11	=11	=11	=11
8DL 8GG'/	(2d [2G\	p	2r	(16g/LL	p
!	!	!	!	!LO:TX:b:i:t=dolce	!
.	.	.	.	16b/JJ	.
!	!LO:TX:b:i:t=legg.	!	!	!	!
8D 8GG'/	.	.	.	4dd\)	.
8D 8GG'/	.	.	.	.	.
8DJ 8GG'/	.	.	.	8b'\	.
=12	=12	=12	=12	=12	=12
8DL 8GG'/	2e 2G\])	.	2r	8a'\L	.
8D 8GG'/	.	.	.	8cc'\J	.
8D 8GG'/	.	.	.	(8ee'\L	.
8DJ 8GG'/	.	.	.	16dd\L	.
.	.	.	.	16cc\JJ	.
=13	=13	=13	=13	=13	=13
8DL 8GG'/	[2d [2G\	.	2r	16b\LL	.
.	.	.	.	16cc\JJ	.
8D 8GG'/	.	.	.	4dd\)	.
8D 8GG'/	.	.	.	.	.
8DJ 8GG'/	.	.	.	8b'\	.
=14	=14	=14	=14	=14	=14
8DL 8GG'/	2d] 2G\]	.	2r	(8cc\L	.
8D 8GG'/	.	.	.	16b\L	.
.	.	.	.	16a\JJ	.
8D 8GG'/	.	.	.	8g/)	.
8DJ 8GG'/	.	.	.	8r	.
=15	=15	=15	=15	=15	=15
8DL 8GG'/	(2d [2G\	.	2r	(16g/LL	.
.	.	.	.	16b/JJ	.
8D 8GG'/	.	.	.	4dd\)	.
8D 8GG'/	.	.	.	.	.
8DJ 8GG'/	.	.	.	8b'\	.
!LO:LB:g=original	!LO:LB:g=original	!	!	!	!
=16	=16	=16	=16	=16	=16
8DL 8GG'/	2e 2G\])	.	2r	8a'\L	.
8D 8GG'/	.	.	.	8cc'\J	.
8D 8GG'/	.	.	.	8ee'\L	.
8DJ 8GG'/	.	.	.	(16dd\L	.
.	.	.	.	16cc\JJ	.
!	!	!	!LO:LB:g=original	!LO:LB:g=original	!
=17	=17	=17	=17	=17	=17
8DL 8GG'/	[2d [2G\	.	2r	16b\LL	.
.	.	.	.	16cc\JJ	.
8D 8GG'/	.	.	.	4dd\)	.
8D 8GG'/	.	.	.	.	.
8DJ 8GG'/	.	.	.	8b'\	.
=18	=18	=18	=18	=18	=18
8DL 8GG'/	4.d] 4.G\]	.	2r	(8cc\L	.
8D 8GG'/	.	.	.	16b\L	.
.	.	.	.	16a\JJ	.
8DJ 8GG'/	.	.	.	8g/)	.
8r	8r	.	.	8r	.
=19	=19	=19	=19	=19	=19
!	!	!	!	!	!LO:DY:b
2r	(16D\LL	mf	(16d/LL	2r	mf
.	16F#\JJ	.	16f#/JJ	.	.
.	4G\)	.	4g/)	.	.
.	(16A\LL	.	(16a/LL	.	.
.	16G\JJ	.	16g/JJ	.	.
=20	=20	=20	=20	=20	=20
2r	16F#\LL	.	16f#/LL	2r	.
.	16E\	.	16e/	.	.
.	16D\	.	16d/	.	.
.	16F#\JJ	.	16f#/JJ	.	.
.	8A\L)	.	8a/L)	.	.
.	8G'\J	.	8g'/J	.	.
=21	=21	=21	=21	=21	=21
2r	8G'\	.	8b'\	2r	.
.	(4d^\	.	(4dd^\	.	.
.	16c#X\LL	.	16cc#X\LL	.	.
.	16B\JJ	.	16b\JJ	.	.
=22	=22	=22	=22	=22	=22
2r	8A\L)	.	8a/L)	2r	.
.	8F#'\J	.	8f#'/J	.	.
.	8D'\	.	8d'/	.	.
.	8r	.	8r	.	.
!LO:LB:g=original	!LO:LB:g=original	!	!	!	!
=23	=23	=23	=23	=23	=23
2r	(16D\LL	.	(16d/LL	2r	.
.	16F#\JJ	.	16f#/JJ	.	.
.	4G\)	.	4g/)	.	.
.	(16A\LL	.	(16a/LL	.	.
.	16G\JJ	.	16g/JJ	.	.
!	!	!	!LO:LB:g=original	!LO:LB:g=original	!
=24	=24	=24	=24	=24	=24
2r	16F#\LL	.	16f#/LL	2r	.
.	16E\	.	16e/	.	.
.	16D\	.	16d/	.	.
.	16F#\JJ	.	16f#/JJ	.	.
.	8A\L)	.	8a/L)	.	.
.	8G'\J	.	8g'/J	.	.
=25	=25	=25	=25	=25	=25
2r	8B'\	.	8b'\	2r	.
.	(4d^\	.	(4dd^\	.	.
.	16c#X\LL	.	16cc#X\LL	.	.
.	16B\JJ	.	16b\JJ	.	.
=26	=26	=26	=26	=26	=26
2r	8A\L)	.	8a/L)	2r	.
.	8F#'\J	.	8f#'/J	.	.
.	8D\	.	8d'/	.	.
.	8r	.	8r	.	.
*	*clefG2	*	*	*	*
=27	=27	=27	=27	=27	=27
!	!LO:TX:i:a:t=un poco marcato	!	!	!	!
[2D [2GG/	8r	p	8.r	(16gg\LL	p
.	.	.	.	16bb\JJ	.
.	(16g/LL	.	.	4ddd\)	.
!	!	!	!	!LO:TX:i:b:t=dolce	!
.	16f#/JJ	.	(32G/LLL	.	.
.	.	.	32A/JJJ	.	.
.	8e/L)	.	[4G/)	.	.
.	8d#X'/J	.	.	8bb'\	.
=28	=28	=28	=28	=28	=28
.	(8qe/	.	.	.	.
2D] 2GG/]	8fn/)	.	8.G/L]	8aa'\L	.
.	4f/	.	.	8ccc'\J	.
.	.	.	(32G/LL	.	.
.	.	.	32A/JJJ	.	.
.	.	.	[4G/)	8eee'\L	.
.	(8f#X/	.	.	(16ddd\L	.
.	.	.	.	16ccc\JJ	.
!LO:LB:g=original	!LO:LB:g=original	!	!	!	!
=29	=29	=29	=29	=29	=29
[2D [2GG/	8g/L)	.	8.G/L]	16bb\LL	.
.	.	.	.	16ccc\JJ	.
.	8fn'/	.	.	4ddd\)	.
.	.	.	(32G/LL	.	.
.	.	.	32A/JJJ	.	.
.	8e'/	.	[4G/)	.	.
.	8d#X'/J	.	.	8bb'\	.
=30	=30	=30	=30	=30	=30
2D] 2GG/]	(4.e/	.	8.G/L]	8ccc'\L	.
.	.	.	.	(16bb\L	.
*	*	*	*Xtuplet	*	*
.	.	.	(48A/LL	16aa\JJ	.
.	.	.	48B/	.	.
.	.	.	48A/JJJ	.	.
.	.	.	8G/)	[4gg\	.
.	16d/LL	.	8r	.	.
.	16c/JJ)	.	.	.	.
!	!	!	!LO:LB:g=original	!LO:LB:g=original	!
=31	=31	=31	=31	=31	=31
[2D [2GG/	8B/L	.	8.r	16gg\LL]	.
.	.	.	.	16bb\JJ	.
.	8r	.	.	4ddd\)	.
.	.	.	(32G/LLL	.	.
.	.	.	32A/JJJ	.	.
.	8g/	.	[4G/)	.	.
.	8d#X/J	.	.	8bb'\	.
=32	=32	=32	=32	=32	=32
.	(8qe/	.	.	.	.
2D] 2GG/]	8fn/)	.	8.G/L]	8aa'\L	.
.	4f/	.	.	8ccc'\J	.
.	.	.	(32G/LL	.	.
.	.	.	32A/JJJ	.	.
.	.	.	[4G/)	8eee'\L	.
.	(8f#X/	.	.	(16ddd\L	.
.	.	.	.	16ccc\JJ	.
=33	=33	=33	=33	=33	=33
[2D [2GG/	8g/L)	.	8.G/L]	16bb\LL	.
.	.	.	.	16ccc\JJ	.
.	8fn'/	.	.	4ddd\)	.
.	.	.	(32G/LL	.	.
.	.	.	32A/JJJ	.	.
.	8e'/	.	[4G/)	.	.
.	8d#X'/J	.	.	8bb'\	.
=34	=34	=34	=34	=34	=34
2D] 2GG/]	(4.e/	.	8.G/L]	8ccc\L	.
.	.	.	.	16bb\L	.
.	.	.	(48A/LL	16aa\JJ	.
.	.	.	48B/	.	.
.	.	.	48A/JJJ	.	.
.	.	.	8G/)	8gg\	.
.	16f#X/LL	.	8r	8r	.
.	16e/JJ)	.	.	.	.
=35	=35	=35	=35	=35	=35
4G 4GG/	4d 4B/	f	4b\	(16dd\LL	f
.	.	.	.	16ffn\	.
.	.	.	.	16ee\	.
.	.	.	.	16dd\JJ	.
4C 4CC/	4e 4B-X/	.	4b-X\	8ee\L)	.
.	.	.	.	8cc'\J	.
!LO:LB:g=original	!LO:LB:g=original	!	!	!	!
=36	=36	=36	=36	=36	=36
*	*^	*	*	*^	*
4.Fn 4.FFn/	4fn/	4A/	.	4.a/	8ffn/L	4ffn\	.
.	.	.	.	.	8aa'>/J	.	.
*	*clefF4	*	*	*	*	*	*
.	4c/	8A\L	.	.	([4ccc [4cc\	4rgyy	.
8E-X 8EE-X/	.	8G\J	.	8g/	.	.	.
*	*v	*v	*	*	*v	*v	*
!	!	!	!LO:LB:g=original	!LO:LB:g=original	!
=37	=37	=37	=37	=37	=37
4D 4DD/	4c 4F#X\	.	4f#X/	16ccc]LL 16cc\]	.
.	.	.	.	16bb\	.
.	.	.	.	16aa\	.
.	.	.	.	16gg\JJ	.
4C/	4A 4D\	.	4a 4f#/	16ff#X\LL	.
.	.	.	.	16dd\	.
.	.	.	.	16ee\	.
.	.	.	.	16ff#\JJ	.
=38	=38	=38	=38	=38	=38
4.BB/	[4d [4G [4D\	.	8g'/L	8gg'\L)	.
.	.	.	8b'/J	8bb'\J	.
.	8d]L 8G] 8D\]	.	8dd'\	8ddd'\	.
8A 8AA\	8dJ 8c\	.	8r	8r	.
=39	=39	=39	=39	=39	=39
4G 4GG/	4d 4B\	.	4b\	(16dd\LL	.
.	.	.	.	16ffn\	.
.	.	.	.	16ee\	.
.	.	.	.	16dd\JJ	.
4C 4CC/	4e 4B-X\	.	4b-X\	8ee\L)	.
.	.	.	.	8cc'\J	.
=40	=40	=40	=40	=40	=40
*	*^	*	*	*^	*
4.Fn 4.FFn/	4fn\ 4A\	4ryy	.	4.a/	8ffn/L	4ffn\	.
.	.	.	.	.	8aa'/J	.	.
.	4c/	8A\L	.	.	([4ccc [4cc\	4rAyy	.
8E-X 8EE-X/	.	8G\J	.	8g'/	.	.	.
*	*v	*v	*	*	*v	*v	*
=41	=41	=41	=41	=41	=41
4D 4DD/	4c 4F#X\	.	4f#X/	16ccc]LL 16cc\]	.
.	.	.	.	16bb\	.
.	.	.	.	16aa\	.
.	.	.	.	16gg\JJ	.
4D 4DD/	4d 4c 4F#\	.	(>4cc 4f#/	16ff#\LL	.
.	.	.	.	16dd\	.
.	.	.	.	16ee\	.
.	.	.	.	16ff#\JJ	.
=42	=42	=42	=42	=42	=42
4D 4GG/	4d 4B 4G\	.	4b 4g'/)	4gg'\)	.
8GG 8GGG/	8d 8B 8G\	.	8dd 8b 8g\	8ggg 8ddd 8bb 8gg\	.
8r;	8r;	.	8r;	8r;	.
!LO:PB:g=original	!LO:PB:g=original	!	!LO:PB:g=original	!LO:PB:g=original	!
=43||	=43||	=43||	=43||	=43||	=43||
*k[f#c#]	*k[f#c#]	*	*k[f#c#]	*k[f#c#]	*
*^	*	*	*	*	*
!	!	!LO:TX:B:a:t=Poco meno mosso.	!	!	!LO:TX:B:a:t=Poco meno mosso.	!
[2BB/	[2BBB\	[2F#\	pp	(8dd\L	(8ff#\L	pp
.	.	.	.	8cc#\)	8gg\)	.
.	.	.	.	8b'\	8cc#'\	.
.	.	.	.	8a'\J	8dd'\J	.
=44	=44	=44	=44	=44	=44	=44
(8BB/L]	2BBB\]	2F#\]	.	(8g/L	4ee^\	.
8AA#X/)	.	.	.	8f#/)	.	.
(8BB/	.	.	.	(8g/	4ee^\	.
8AA#/J)	.	.	.	8f#/J)	.	.
=45	=45	=45	=45	=45	=45	=45
[2BB/	[2BBB\	[2F#\	.	(8dd\L	(8ff#\L	.
.	.	.	.	8cc#\)	8gg\)	.
.	.	.	.	8b'\	8cc#'\	.
.	.	.	.	8a'\J	8dd'\J	.
=46	=46	=46	=46	=46	=46	=46
(8BB/L]	2BBB\]	2F#\]	.	(8g/L	4ee^\	.
8AA#X/)	.	.	.	8f#/)	.	.
(8BB/	.	.	.	(8g/	4ee^\	.
8AA#/J)	.	.	.	8f#/J)	.	.
=47	=47	=47	=47	=47	=47	=47
(4.BB/	[2BBB\	(4.F#\	.	(8f#/L	(8a/L	.
.	.	.	.	8e/J)	8b/J)	.
.	.	.	.	4d/	4f#/	.
8AA#X/)	.	8G\)	.	.	.	.
=48	=48	=48	=48	=48	=48	=48
(4.BB/	2BBB\]	(4.F#\	.	(8f#/L	(8a/L	.
.	.	.	.	8e/)	8b/J)	.
.	.	.	.	8d'/	4f#/	.
8AA#X/)	.	8G\)	.	8c#'/J	.	.
*v	*v	*	*	*	*	*
=49	=49	=49	=49	=49	=49
!	!	!	!	!LO:TX:i:b:t=dolce espr.	!
[2BBB/	[2F# 2BB\	.	(4B/	(8b\	.
.	.	.	.	4ff#\	.
.	.	.	4c#/	.	.
.	.	.	.	8ee#X\	.
!	!	!	!LO:LB:g=original	!LO:LB:g=original	!
=50	=50	=50	=50	=50	=50
2BBB/]	2F#] 2BB\	.	([>2d/)	8ff#\L	.
.	.	.	.	8gg#X\J	.
.	.	.	.	8ff#\L)	.
.	.	.	.	16ee#X\L	.
.	.	.	.	16dd\JJ	.
!LO:LB:g=original	!LO:LB:g=original	!	!	!	!
=51	=51	=51	=51	=51	=51
*	*	*	*^	*	*
[2BBB/	[2F# [2BB\	.	(4d/])	2d\	(16cc#\LL	.
.	.	.	.	.	16b\JJ	.
.	.	.	.	.	4dd\	.
.	.	.	4e#X/	.	.	.
.	.	.	.	.	[8cc#\	.
*	*	*	*v	*v	*	*
=52	=52	=52	=52	=52	=52
2BBB/]	2F#] 2BB\]	.	4en 4c#/	16cc#/LL]	.
.	.	.	.	16g#X/JJ	.
.	.	.	.	4a#X/	.
.	.	.	8d) 8B/	.	.
.	.	.	8r	8b\)	.
=53	=53	=53	=53	=53	=53
*^	*	*	*	*	*
!	!	!	!	!	!LO:TX:i:b:t=dolce	!
!	!	!	!	!	!	!LO:DY:b
.	.	.	.	.	(<8qb/	pp
[2BB/	[2BBB\	(8d\L	pp	(8f#/L	([2ff#\)	.
.	.	8c#\)	.	8g/)	.	.
.	.	(8B'\	.	8c#'/	.	<
.	.	8A'\J)	.	8d'/J	.	.
=54	=54	=54	=54	=54	=54	=54
(8BB/L]	2BBB\]	(8G\L	.	4e~/	(4ff#\_)	[[
8AA#X/)	.	8F#\)	.	.	.	.
(8BB/	.	(8G\	.	4e~/	16ff#\LL]	>
.	.	.	.	.	16ee#X\	.
8AA#/J)	.	8F#\J)	.	.	16dd\	.
.	.	.	.	.	16cc#\JJ)	]
=55	=55	=55	=55	=55	=55	=55
!	!	!	!	!	!LO:TX:i:b:t=dolce	!
.	.	.	.	.	(<8qb/	.
[2BB/	[2BBB\	(8d\L	.	(8f#/L	[2fff#\)	.
.	.	8c#\)	.	8g/)	.	.
.	.	8B'\	.	8c#'/	.	.
.	.	8A'\J	.	8d'/J	.	.
=56	=56	=56	=56	=56	=56	=56
(8BB/L]	2BBB\]	(8G\L	.	4e~/	4fff#\_	.
8AA#X/)	.	8F#\)	.	.	.	.
(8BB/	.	(8G\	.	4e~/	(16fff#\LL]	.
.	.	.	.	.	16eee#X\	.
8AA#/J)	.	8F#\J)	.	.	16ddd\	.
.	.	.	.	.	16ccc#\JJ	.
!LO:LB:g=original	!LO:LB:g=original	!LO:LB:g=original	!	!LO:LB:g=original	!LO:LB:g=original	!
=57	=57	=57	=57	=57	=57	=57
(4.BB/	[2BBB\	(8A\L	.	(4.d/	[2bb\)	.
.	.	8B\J)	.	.	.	.
.	.	([4G\	.	.	.	.
8AA#X/	.	.	.	8c#/)	.	.
=58	=58	=58	=58	=58	=58	=58
4.BB/)	4.BBB\]	8G\L]	.	4.B/	8bb\]	.
.	.	8A\J)	.	.	8r	.
.	.	[4F#\	.	.	4r	.
(16AAn/LL	8r	.	.	8r	.	.
16GG/JJ	.	.	.	.	.	.
*v	*v	*	*	*	*	*
=59	=59	=59	=59	=59	=59
8FF#/)	8F#\]	.	2r	8r	.
!	!	!	!	!LO:TX:i:a:t=risoluto	!
8r	8r	.	.	(4f#^>/	sfz
4E'\	4e'\	p	.	.	.
.	.	.	.	16g#X/LL	p
!	!LO:TX:i:b:t=risoluto	!	!	!	!
.	.	.	.	16a#X/JJ	.
=60	=60	=60	=60	=60	=60
4D'\	4d'\	.	8r	16b\LL	.
.	.	.	.	16cc#\	.
.	.	.	4f#^>/	16dd\	.
.	.	.	.	16cc#\JJ	.
4BB'/	4B'\	.	.	16ee\LL	.
.	.	.	.	16dd\	.
.	.	.	[8f#/	16cc#\	.
.	.	.	.	16dd\JJ	.
=61	=61	=61	=61	=61	=61
4AA'/	4A'\	.	8f#/]	16b\LL	.
.	.	.	.	16cc#\	.
.	.	.	4f#/	16dd\	.
.	.	.	.	16cc#\JJ	.
4GG'/	4G'\	.	.	16ee\LL	.
.	.	.	.	16dd\	.
.	.	.	[8f#/	16cc#\	.
.	.	.	.	16b\JJ	.
=62	=62	=62	=62	=62	=62
(4FF#/	(4F#\	.	8f#/]	16b/LL	.
.	.	.	.	16g#X/JJ	.
.	.	.	4f#/	4a#X/	.
8FFF#/)	8FF#/)	.	.	.	.
8r	8r	.	[8f#/	8cc#\	.
!LO:LB:g=original	!LO:LB:g=original	!	!LO:LB:g=original	!LO:LB:g=original	!
=63	=63	=63	=63	=63	=63
8r	8r	.	8f#/]	8f#/)	.
!	!	!LO:HP:b:t=cresc.:note=kresczki przeciągnięte do końca t. 66	!	!	!LO:HP:b:t=cresc.:note=kresczki przeciągnięte do końca t. 66
8E'\L	8e'\L	<	(4f#/	(4ff#\	<
8D'\	8d'\	.	.	.	.
8C#'\J	8c#'\J	.	16g#X/LL	16gg#X\LL	.
.	.	.	16a#X/JJ	16aa#X\JJ	.
=64	=64	=64	=64	=64	=64
8dL 8D'\	8f#\	.	16b\LL	16bb\LL	.
.	.	.	16cc#\	16ccc#\	.
8c# 8C#'\	4f#\	.	16dd\	16ddd\	.
.	.	.	16cc#\JJ	16ccc#\JJ	.
8B 8BB'\	.	.	16ee\LL	16eee\LL	.
.	.	.	16dd\	16ddd\	.
8AJ 8AA'\	[8f#\	.	16cc#\	16ccc#\	.
.	.	.	16dd\JJ	16ddd\JJ	.
=65	=65	=65	=65	=65	=65
8G#XL 8GG#X'/	8f#\]	.	16b\LL	16bb\LL	.
.	.	.	16cc#\	16ccc#\	.
8Gn 8GGn'/	4f#\	.	16dd\	16ddd\	.
.	.	.	16cc#\JJ	16ccc#\JJ	.
8F# 8FF#'/	.	.	16ee\LL	16eee\LL	.
.	.	.	16dd\	16ddd\	.
8E#XJ 8EE#X'/	[8f#\	.	16cc#\	16ccc#\	.
.	.	.	16b\JJ	16bb\JJ	.
=66	=66	=66	=66	=66	=66
(4F# 4FF#/	8f#\]	.	16cc#/LL	16ccc#\LL	.
.	.	.	16g#X/JJ	16gg#X\JJ	.
.	4f#\	.	4a#X/	4aa#X\	.
8BB 8BBB/)	.	.	.	.	.
8r	8f#\	.	8b'\)	8bb'\)	.
=67	=67	=67	=67	=67	=67
*^	*^	*	*	*	*
!	!	!LO:TX:B:a:t=Meno mosso.	!	!	!	!LO:TX:B:a:t=Meno mosso.	!
[2BB/	[2BBB\	[2B/	[2F#\	p	(8dd\L	(8fff#L 8ddd\	p
.	.	.	.	.	8cc#\)	8ggg 8ccc#\)	.
.	.	.	.	.	8b'\	8bb 8aa'\	.
.	.	.	.	.	8a'\J	8dddJ 8aa'\	.
=68	=68	=68	=68	=68	=68	=68	=68
*	*	*	*	*	*	*^	*
(8BB/L]	2BBB\]	(8B/L]	2F#\]	.	(8g/L	4eee/	(8gg\L	.
8AA#X/)	.	8A#X/)	.	.	8f#/)	.	8ff#\)	.
(8BB/	.	(8B/	.	.	(8g/	4eee/	(8gg\	.
8AA#/J)	.	8A#/J)	.	.	8f#/J)	.	8ff#\J)	.
*	*	*	*	*	*	*v	*v	*
!LO:LB:g=original	!LO:LB:g=original	!LO:LB:g=original	!LO:LB:g=original	!	!LO:LB:g=original	!LO:LB:g=original	!
=69	=69	=69	=69	=69	=69	=69	=69
[2BB/	[2BBB\	[2B/	[2F#\	.	(8dd\L	(8ff#\L	.
.	.	.	.	.	8cc#\)	8gg\)	.
.	.	.	.	.	8b'\	8cc#'\	.
.	.	.	.	.	8a'\J	8dd'\J	.
=70	=70	=70	=70	=70	=70	=70	=70
(8BB/L]	2BBB\]	(8B/L]	2F#\]	.	(8g/L	4ee\	.
8AA#X/)	.	8A#X/)	.	.	8f#/)	.	.
(8BB/	.	(8B/	.	.	(8g/	4ee\	.
8AA#/J)	.	8A#/J)	.	.	8f#/J)	.	.
*	*	*v	*v	*	*	*	*
=71	=71	=71	=71	=71	=71	=71
(4.BB/	[2BBB\	(4.F#\	>	(8f#/L	(8a/L	>
.	.	.	.	8e/J)	8b/J)	.
.	.	.	.	4d/	4f#/	.
8AA#X/)	.	8G\)	.	.	.	.
=72	=72	=72	=72	=72	=72	=72
(4.BB/	2BBB\]	(4.F#\	.	(8f#/L	(8a/L	.
.	.	.	.	8e/)	8b/J)	.
.	.	.	.	8d'/	4f#/	]
8AA#X/)	.	8G\)	]]	8c#'/J	.	.
*v	*v	*	*	*	*	*
=73	=73	=73	=73	=73	=73
!	!	!	!	!LO:TX:i:b:t=espr. dolce	!
[2BBB/	[2F# [2BB\	pp	(8B/	2r	.
.	.	.	4f#/)	.	.
.	.	.	(8e#X/	.	.
=74	=74	=74	=74	=74	=74
2BBB/]	2F#] 2BB\]	.	8f#/L	4r	.
.	.	.	8g#X/J	.	.
!	!	!	!	!LO:TX:i:b:t=legg.	!
.	.	.	8f#/L	4bbT\	.
.	.	.	16e#X/L	.	.
.	.	.	16d/JJ	.	.
=75	=75	=75	=75	=75	=75
[2BBB/	[2F# [2BB\	.	16c#/LL	2bbTT\	.
.	.	.	16B/JJ	.	.
.	.	.	4d/)	.	.
.	.	.	([8c#/	.	.
!	!	!	!LO:LB:g=original	!LO:LB:g=original	!
=76	=76	=76	=76	=76	=76
2BBB/]	2F#] 2BB\]	.	16c#/LL]	(<2bbTTT\	.
.	.	.	16G#X/JJ	.	.
.	.	.	4A#X/	.	.
.	.	.	8B/)	.	.
.	.	.	.	16qqaa#X/LL	.
.	.	.	.	16qqbb/JJ)	.
*	*clefG2	*	*	*	*
!LO:LB:g=original	!LO:LB:g=original	!	!	!	!
=77	=77	=77	=77	=77	=77
*^	*	*	*	*	*
!	!	!	!	!	!LO:TX:i:b:t=dolce	!
[2BB/	[2BBB\	(>8f#L 8d/	pp	2r	([2fff#\	.
.	.	8g 8c#/)	.	.	.	.
.	.	8c#'> 8B/	.	.	.	.
.	.	8d'>J 8A/	.	.	.	.
=78	=78	=78	=78	=78	=78	=78
*	*	*^	*	*	*	*
(8BB/L]	2BBB\]	4e/	(8G\L	.	2r	4fff#\_	.
8AA#X/)	.	.	8F#\)	.	.	.	.
(8BB/	.	4e/	(8G\	.	.	16fff#\LL]	.
.	.	.	.	.	.	16eee#X\	.
8AA#/J)	.	.	8F#\J)	.	.	16ddd\	.
.	.	.	.	.	.	16ccc#\JJ	.
*	*	*v	*v	*	*	*	*
=79	=79	=79	=79	=79	=79	=79
.	.	.	.	(<8qb/	.	.
!	!	!	!	!	!LO:TX:i:b:t=dolce	!
[2BB/	[2BBB\	(>8f#L 8d/	.	([2ff#\)	8bb\)	.
.	.	8g 8c#/)	.	.	8r	.
.	.	8c#'> 8B/	.	.	4r	.
.	.	8d'>J 8A/	.	.	.	.
=80	=80	=80	=80	=80	=80	=80
*	*	*^	*	*	*	*
(8BB/L]	2BBB\]	4e/	(8G\L	.	4ff#\_	2r	.
8AA#X/)	.	.	8F#\)	.	.	.	.
(8BB/	.	4e/	(8G\	.	16ff#\LL]	.	.
.	.	.	.	.	16ee#X\	.	.
8AA#/J)	.	.	8F#\J)	.	16dd\	.	.
.	.	.	.	.	16cc#\JJ	.	.
=81	=81	=81	=81	=81	=81	=81	=81
(4.BB/	[2BBB\	(4.d/	(8A\L	.	[2b\)	2r	.
.	.	.	8B\J)	.	.	.	.
.	.	.	[4G\	.	.	.	.
8AA#X/	.	8c#/	.	.	.	.	.
=82	=82	=82	=82	=82	=82	=82	=82
4.BB/)	4.BBB\]	4.B/)	(8G\L]	.	8b\]	2r	.
.	.	.	8A\J)	.	8r	.	.
.	.	.	8F#\	.	4r	.	.
(16AAn/LL	8ryy	8r	8ryy	.	.	.	.
16GG/JJ	.	.	.	.	.	.	.
*v	*v	*	*	*	*	*	*
*	*v	*v	*	*	*	*
*	*clefF4	*	*	*	*
!LO:PB:g=original	!LO:PB:g=original	!	!LO:PB:g=original	!LO:PB:g=original	!
=83	=83	=83	=83	=83	=83
8FF#/)	4r	.	2r	8r	.
!	!	!	!	!LO:TX:i:a:t=risoluto	!
8r	.	.	.	(4f#^>/	.
!	!LO:TX:i:a:t=risoluto	!	!	!	!
4E~\	4e~\	.	.	.	.
.	.	.	.	16g#X/LL	.
.	.	.	.	16a#X/JJ	.
=84	=84	=84	=84	=84	=84
4D~\	4d~\	.	8r	16b\LL	.
.	.	.	.	16cc#\	.
.	.	.	4f#/	16dd\	.
.	.	.	.	16cc#\JJ	.
4BB~/	4B~\	.	.	16ee\LL	.
.	.	.	.	16dd\	.
.	.	.	[8f#/	16cc#\	.
.	.	.	.	16dd\JJ	.
=85	=85	=85	=85	=85	=85
4AA~/	4A~\	.	8f#/]	16b\LL	.
.	.	.	.	16cc#\	.
.	.	.	4f#/	16dd\	.
.	.	.	.	16cc#\JJ	.
4GG~/	4G~\	.	.	16ee\LL	.
.	.	.	.	16dd\	.
.	.	.	[8f#/	16cc#\	.
.	.	.	.	16b\JJ	.
=86	=86	=86	=86	=86	=86
(4FF#/	(4F#\	.	8f#/]	16cc#/LL	.
.	.	.	.	16g#X/JJ	.
.	.	.	4f#/	4a#X/	.
8FFF#/)	8FF#/)	.	.	.	.
8r	8r	.	[8f#/	8cc#\	.
=87	=87	=87	=87	=87	=87
8r	8r	.	8f#/]	8f#/)	.
!	!	!LO:HP:b:t=cresc.:note=kreseczki do końca t. 90	!	!	!LO:HP:b:t=cresc.:note=kreseczki do końca t. 90
8E'\L	8e'\L	<	(4f#/	4ff#\	<
8D'\	8d'\	.	.	.	.
8C#'\J	8c#'\J	.	16g#X/LL	(16gg#X\LL	.
.	.	.	16a#X/JJ	16aa#X\JJ	.
=88	=88	=88	=88	=88	=88
8dL 8D'\	8f#\	.	16b\LL	16bb\LL	.
.	.	.	16cc#\	16ccc#\	.
8c# 8C#'\	4f#\	.	16dd\	16ddd\	.
.	.	.	16cc#\JJ	16ccc#\JJ	.
8B 8BB'\	.	.	16ee\LL	16eee\LL	.
.	.	.	16dd\	16ddd\	.
8AJ 8AA'\	[8f#\	.	16cc#\	16ccc#\	.
.	.	.	16dd\JJ	16ddd\JJ	.
!	!	!	!LO:LB:g=original	!LO:LB:g=original	!
=89	=89	=89	=89	=89	=89
8G#XL 8GG#X'/	8f#\]	.	16b\LL	16bb\LL	.
.	.	.	16cc#\	16ccc#\	.
8Gn 8GGn'/	4f#\	.	16dd\	16ddd\	.
.	.	.	16cc#\JJ	16ccc#\JJ	.
8F# 8FF#'/	.	.	16ee\LL	16eee\LL	.
.	.	.	16dd\	16ddd\	.
8E#XJ 8EE#X'/	[8f#\	.	16cc#\	16ccc#\	.
.	.	.	16b\JJ	16bb\JJ	.
=90	=90	=90	=90	=90	=90
(4F# 4FF#/	8f#\]	.	16cc#/LL	16ccc#\LL	.
.	.	.	16g#X/JJ	16gg#X\JJ	.
.	4f#\	.	4a#X/	4aa#X\	.
8BB 8BBB/)	.	.	.	.	.
8r	8f#\	.	8b'\)	8bb'\)	.
!LO:LB:g=original	!LO:LB:g=original	!	!	!	!
=91	=91	=91	=91	=91	=91
*^	*^	*	*	*	*
!	!	!LO:TX:B:a:t=Tempo animato.	!	!	!	!LO:TX:B:a:t=Tempo animato.	!
[2BB/	[2BBB\	[2B/	[2F#\	f	(8dd\L	(8fff#L 8ddd\	f
.	.	.	.	.	8cc#\)	8ggg 8ccc#\)	.
.	.	.	.	.	8b'\	8ccc# 8bb'\	.
.	.	.	.	.	8a'\J	8dddJ 8aa'\	.
=92	=92	=92	=92	=92	=92	=92	=92
*	*	*	*	*	*	*^	*
(8BB/L]	2BBB\]	(8B/L]	2F#\]	.	(8g/L	4eee/	(8gg\L	.
8AA#X/)	.	8A#X/)	.	.	8f#/)	.	8ff#\)	.
(8BB/	.	(8B/	.	.	(8g/	4eee/	(8gg\	.
8AA#/J)	.	8A#/J)	.	.	8f#/J)	.	8ff#\J)	.
*	*	*	*	*	*	*v	*v	*
=93	=93	=93	=93	=93	=93	=93	=93
[2BB/	[2BBB\	[2B/	[2F#\	.	(8dd\L	(8ff#\L	.
.	.	.	.	.	8cc#\)	8gg\)	.
.	.	.	.	.	8b'\	8cc#'\	.
.	.	.	.	.	8a'\J	8dd'\J	.
=94	=94	=94	=94	=94	=94	=94	=94
(8BB/L]	2BBB\_	(8B/L]	2F#\]	.	(8g/L	4ee\	.
8AA#X/)	.	8A#X/)	.	.	8f#/)	.	.
(8BB/	.	(8B/	.	.	(8g/	4ee\	.
8AA#/J)	.	8A#/J)	.	.	8f#/J)	.	.
*v	*v	*	*	*	*	*	*
*	*v	*v	*	*	*	*
!	!	!	!LO:LB:g=original	!LO:LB:g=original	!
=95	=95	=95	=95	=95	=95
*	*	*	*^	*	*
4.BB 4.BBB/]	4.B 4.F#\	.	8f#'/L	4ryy	[4b\	.
.	.	.	8e'/J	.	.	.
!	!	!	!	!	!	!LO:DY:a
.	.	.	(16d/LL	[4d\	8b\]	<
.	.	.	16a/	.	.	.
8r	8r	.	16g#X/	.	8r	.
.	.	.	16f#/JJ	.	.	.
=96	=96	=96	=96	=96	=96	=96
2r	8r	.	16g#X/LL	16d\]	16r	.
*	*	*	*v	*v	*	*
*	*	*	*	*8va	*
*	*	*	*^	*	*
.	.	.	16a/	4..ryy	(16aa\LL	.
.	8c#'\L	.	16b/	.	16bb\	.
.	.	.	16cc#/JJ	.	16ccc#\JJ	.
.	8B'\J	.	16dd\LL	.	16ddd\LL	.
.	.	.	16ee\	.	16eee\	[
.	8r	.	16ff#\	.	16fff#\	.
.	.	.	16gg#X\JJ)	.	16ggg#X\JJ)	.
*	*	*	*v	*v	*	*
=97	=97	=97	=97	=97	=97
*^	*	*	*	*	*
8D/L	[2DD\	(2d [2A\	ff	(8aaL 8ff#\	(8aaaL 8fff#\	ff
8AA/	.	.	.	8bb 8ee\)	8bbb 8eee\)	.
8D/	.	.	.	8ee 8dd'\	8eee 8ddd'\	.
8AA/J	.	.	.	8ff#J 8cc#'\	8fff#J 8ccc#'\	.
!LO:LB:g=original	!LO:LB:g=original	!LO:LB:g=original	!	!	!	!
=98	=98	=98	=98	=98	=98	=98
*	*	*	*	*^	*^	*
8D/L	2DD\]	2e 2A\])	.	4gg/	(8b\L	4ggg/	(8bb\L	.
8AA/	.	.	.	.	8a\)	.	8aa\)	.
8D/	.	.	.	4gg/	(8b\	4ggg/	(8bb\	.
8AA/J	.	.	.	.	8a\J)	.	8aa\J)	.
*	*	*	*	*v	*v	*	*	*
*	*	*	*	*	*v	*v	*
=99	=99	=99	=99	=99	=99	=99
8D/L	[2DD\	(2d [2A\	.	(8aaL 8ff#\	(8aaaL 8fff#\	.
8AA/	.	.	.	8bb 8ee\)	8bbb 8eee\)	.
8D/	.	.	.	8ee 8dd'\	8eee 8ddd'\	.
8AA/J	.	.	.	8ff#J 8cc#'\	8fff#J 8ccc#'\	.
=100	=100	=100	=100	=100	=100	=100
*	*	*	*	*^	*^	*
8D/L	2DD\]	2e 2A\])	.	4gg/	(8b\L	4ggg/	(8bb\L	.
8AA/	.	.	.	.	8a\)	.	8aa\)	.
8D/	.	.	.	4gg/	(8b\	4ggg/	(8bb\	.
8AA/J	.	.	.	.	8a\J)	.	8aa\J)	.
*	*	*	*	*v	*v	*	*	*
*v	*v	*	*	*	*v	*v	*
!	!	!	!LO:LB:g=original	!LO:LB:g=original	!
=101	=101	=101	=101	=101	=101
*tremolo	*	*	*	*	*
32DD/LLL	[2d [2A\	.	(8aaL 8ff#\	(8aaaL 8fff#\	.
32D/	.	.	.	.	.
32DD/	.	.	.	.	>
32D/	.	.	.	.	.
32DD/	.	.	8bb 8ee\)	8bbb 8ddd\)	.
32D/	.	.	.	.	.
32DD/	.	>	.	.	.
32D/	.	.	.	.	.
32DD/	.	.	8ee 8cc#'\	8eee 8ccc#'\	.
32D/	.	.	.	.	.
32DD/	.	.	.	.	.
32D/	.	.	.	.	.
32DD/	.	.	8ddJ 8b'\	8dddJ 8bb'\	.
32D/	.	.	.	.	.
32DD/	.	.	.	.	.
32D/JJJ	.	.	.	.	.
=102	=102	=102	=102	=102	=102
*	*	*	*^	*	*
32DD/LLL	2d_ 2A\_	.	8cc#L 8a'\	4ryy	8ccc#L 8aa'\	.
32D/	.	.	.	.	.	.
32DD/	.	.	.	.	.	.
32D/	.	.	.	.	.	.
32DD/	.	.	8ddJ 8g'\	.	8dddJ 8gg'\	.
32D/	.	.	.	.	.	.
32DD/	.	.	.	.	.	.
32D/	.	.	.	.	.	.
32DD/	.	.	[4a/	8f#\L	8aa 8ff#'/	.
32D/	.	.	.	.	.	.
32DD/	.	.	.	.	.	.
32D/	.	.	.	.	.	.
32DD/	.	.	.	8e\J	8r	.
32D/	.	.	.	.	.	.
32DD/	.	.	.	.	.	.
32D/JJJ	.	.	.	.	.	.
*	*	*	*v	*v	*	*
*	*	*	*	*X8va	*
=103	=103	=103	=103	=103	=103
32DD/LLL	8d] 8A\]	]]	8a] 8d/	8r	]
32D/	.	.	.	.	.
32DD/	.	.	.	.	.
32D/	.	.	.	.	.
!	!	!	!	!LO:TX:i:a:t=marc.	!
32DD/	8r	.	8r	8b'\	f
32D/	.	.	.	.	.
32DD/	.	.	.	.	.
32D/	.	.	.	.	.
32DD/	8r	.	4r	[4a/	.
32D/	.	.	.	.	.
32DD/	.	.	.	.	.
32D/	.	.	.	.	.
!	!LO:TX:i:a:t=marc.	!	!	!	!
32DD/	8A'\	f	.	.	.
32D/	.	.	.	.	.
32DD/	.	.	.	.	.
32D/JJJ	.	.	.	.	.
=104	=104	=104	=104	=104	=104
32DD/LLL	[2cn^>\	.	8r	2a/_	.
32D/	.	.	.	.	.
32DD/	.	.	.	.	.
32D/	.	.	.	.	.
32DD/	.	.	8f#'/L	.	.
32D/	.	.	.	.	.
32DD/	.	.	.	.	.
32D/	.	.	.	.	.
32DD/	.	.	8e'/	.	.
32D/	.	.	.	.	.
32DD/	.	.	.	.	.
32D/	.	.	.	.	.
32DD/	.	.	8f#'/J	.	.
32D/	.	.	.	.	.
32DD/	.	.	.	.	.
32D/JJJ	.	.	.	.	.
!LO:LB:g=original	!LO:LB:g=original	!	!	!	!
=105	=105	=105	=105	=105	=105
32DD/LLL	4c\]	.	4e/	8a/L]	.
32D/	.	.	.	.	.
32DD/	.	.	.	.	.
32D/	.	.	.	.	.
32DD/	.	.	.	8b'/J	.
32D/	.	.	.	.	.
32DD/	.	.	.	.	.
32D/	.	.	.	.	.
32DD/	8r	.	8r	[4a/	.
32D/	.	.	.	.	.
32DD/	.	.	.	.	.
32D/	.	.	.	.	.
32DD/	8A'\	.	8f#'/	.	.
32D/	.	.	.	.	.
32DD/	.	.	.	.	.
32D/JJJ	.	.	.	.	.
=106	=106	=106	=106	=106	=106
32DD/LLL	[2cn^\	.	4e/	2a/_	.
32D/	.	.	.	.	.
32DD/	.	.	.	.	.
32D/	.	.	.	.	.
32DD/	.	.	.	.	.
32D/	.	.	.	.	.
32DD/	.	.	.	.	.
32D/	.	.	.	.	.
32DD/	.	.	8r	.	.
32D/	.	.	.	.	.
32DD/	.	.	.	.	.
32D/	.	.	.	.	.
32DD/	.	.	8f#'/	.	.
32D/	.	.	.	.	.
32DD/	.	.	.	.	.
32D/JJJ	.	.	.	.	.
=107	=107	=107	=107	=107	=107
32DD/LLL	4c\]	.	4e/	8a/L]	.
32D/	.	.	.	.	.
32DD/	.	.	.	.	.
32D/	.	.	.	.	.
32DD/	.	.	.	8b'/J	.
32D/	.	.	.	.	.
32DD/	.	.	.	.	.
32D/	.	.	.	.	.
32DD/	8r	.	8r	[4a/	.
32D/	.	.	.	.	.
32DD/	.	.	.	.	.
32D/	.	.	.	.	.
32DD/	8A'\	.	8f#'/	.	.
32D/	.	.	.	.	.
32DD/	.	.	.	.	.
32D/JJJ	.	.	.	.	.
!	!	!	!LO:LB:g=original	!LO:LB:g=original	!
=108	=108	=108	=108	=108	=108
32DD/LLL	4cn\	.	4e/	8a/L]	.
32D/	.	.	.	.	.
32DD/	.	.	.	.	.
32D/	.	.	.	.	.
32DD/	.	.	.	8b'/J	.
32D/	.	.	.	.	.
32DD/	.	.	.	.	.
32D/	.	.	.	.	.
32DD/	8r	.	8r	[4a/	.
32D/	.	.	.	.	.
32DD/	.	.	.	.	.
32D/	.	.	.	.	.
32DD/	8A'\	.	8f#'/	.	.
32D/	.	.	.	.	.
32DD/	.	.	.	.	.
32D/JJJ	.	.	.	.	.
=109	=109	=109	=109	=109	=109
32DD/LLL	4cn\	.	4e/	8a/L]	.
32D/	.	.	.	.	.
32DD/	.	.	.	.	.
32D/	.	.	.	.	.
32DD/	.	.	.	8b'/J	.
32D/	.	.	.	.	.
32DD/	.	.	.	.	.
32D/	.	.	.	.	.
32DD/	8r	.	8r	[4a/	.
32D/	.	.	.	.	.
32DD/	.	.	.	.	.
32D/	.	.	.	.	.
32DD/	8A'\	.	8f#'/	.	.
32D/	.	.	.	.	.
32DD/	.	.	.	.	.
32D/JJJ	.	.	.	.	.
=110	=110	=110	=110	=110	=110
32DD/LLL	4cn\	.	4e/	8a/L]	.
32D/	.	.	.	.	.
32DD/	.	.	.	.	.
32D/	.	.	.	.	.
32DD/	.	.	.	8b'/J	.
32D/	.	.	.	.	.
32DD/	.	.	.	.	.
32D/	.	.	.	.	.
32DD/	8r	.	8r	4a/	.
32D/	.	.	.	.	.
32DD/	.	.	.	.	.
32D/	.	.	.	.	.
32DD/	8A'\	.	8f#'/	.	.
32D/	.	.	.	.	.
32DD/	.	.	.	.	.
32D/JJJ	.	.	.	.	.
=111	=111	=111	=111	=111	=111
!	!	!LO:HP:b:t=cresc. ed accel.	!	!	!LO:HP:b:t=cresc. ed accel.
32DD/LLL	[2cn [2A\	<	([4e/	([4ee [4a\	<
32D/	.	.	.	.	.
32DD/	.	.	.	.	.
32D/	.	.	.	.	.
32DD/	.	.	.	.	.
32D/	.	.	.	.	.
32DD/	.	.	.	.	.
32D/	.	.	.	.	.
32DD/	.	.	16e/LL]	16ee]LL 16a\]	.
32D/	.	.	.	.	.
32DD/	.	.	16f#/	16ff#\	.
32D/	.	.	.	.	.
32DD/	.	.	16g/	16gg\	.
32D/	.	.	.	.	.
32DD/	.	.	16f#/JJ	16ff#\JJ	.
32D/JJJ	.	.	.	.	.
!LO:LB:g=original	!LO:LB:g=original	!	!	!	!
=112	=112	=112	=112	=112	=112
32DD/LLL	4c] 4A\]	.	16e/LL	16ee\LL	.
32D/	.	.	.	.	.
32DD/	.	.	16f#/	16ff#\	.
32D/	.	.	.	.	.
32DD/	.	.	16g/	16gg\	.
32D/	.	.	.	.	.
32DD/	.	.	16e/JJ	16ee\JJ	.
32D/	.	.	.	.	.
32DD/	4cn 4A\	.	16a/LL	16aa\LL	.
32D/	.	.	.	.	.
32DD/	.	.	16g/	16gg\	.
32D/	.	.	.	.	.
32DD/	.	.	16f#/	16ff#\	.
32D/	.	.	.	.	.
32DD/	.	.	16g/JJ)	16gg\JJ)	.
32D/JJJ	.	.	.	.	.
=113	=113	=113	=113	=113	=113
*	*	*	*	*8va	*
32DD/LLL	[2cn [2A\	.	([4a [4e/	([4eee [4aa\	.
32D/	.	.	.	.	.
32DD/	.	.	.	.	.
32D/	.	.	.	.	.
32DD/	.	.	.	.	.
32D/	.	.	.	.	.
32DD/	.	.	.	.	.
32D/	.	.	.	.	.
32DD/	.	.	16a]LL 16e/]	16eee]LL 16aa\]	.
32D/	.	.	.	.	.
32DD/	.	.	16f#/	16fff#\	.
32D/	.	.	.	.	.
32DD/	.	.	16g/	16ggg\	.
32D/	.	.	.	.	.
32DD/	.	.	16f#/JJ	16fff#\JJ	.
32D/JJJ	.	.	.	.	.
!	!	!	!LO:LB:g=original	!LO:LB:g=original	!
=114	=114	=114	=114	=114	=114
32DD/LLL	4c] 4A\]	.	16e/LL	16eee\LL	.
32D/	.	.	.	.	.
32DD/	.	.	16f#/	16fff#\	.
32D/	.	.	.	.	.
32DD/	.	.	16g/	16ggg\	.
32D/	.	.	.	.	.
32DD/	.	.	16e/JJ	16eee\JJ	.
32D/	.	.	.	.	.
32DD/	4cn 4A\	.	16b/LL	16bbb\LL	.
32D/	.	.	.	.	.
32DD/	.	.	16a/	16aaa\	.
32D/	.	.	.	.	.
32DD/	.	.	16g/	16ggg\	.
32D/	.	.	.	.	.
32DD/	.	.	16f#/JJ)	16fff#\JJ	.
32D/JJJ	.	.	.	.	.
=115	=115	=115	=115	=115	=115
.	.	.	(<8qe/	.	.
32DD/LLL	[2cn [2A\	.	(16ee\LL)	8eee\)	.
32D/	.	.	.	.	.
32DD/	.	.	16ff#\	.	.
32D/	.	.	.	.	.
*	*	*	*	*X8va	*
32DD/	.	.	16gg\	8r	.
32D/	.	.	.	.	.
32DD/	.	.	16ee\JJ	.	.
32D/	.	.	.	.	.
32DD/	.	.	16aa\LL	4r	.
32D/	.	.	.	.	.
32DD/	.	.	16gg\	.	.
32D/	.	.	.	.	.
32DD/	.	.	16ff#\	.	.
32D/	.	.	.	.	.
32DD/	.	.	16gg\JJ	.	.
32D/JJJ	.	.	.	.	.
=116	=116	=116	=116	=116	=116
*	*	*	*	*8va	*
32DD/LLL	4c] 4A\]	.	16ee\LL	(16eee\LL	.
32D/	.	.	.	.	.
32DD/	.	.	16ff#\	16fff#\	.
32D/	.	.	.	.	.
32DD/	.	.	16gg\	16ggg\	.
32D/	.	.	.	.	.
32DD/	.	.	16ee\JJ	16eee\JJ	.
32D/	.	.	.	.	.
32DD/	4e 4cn 4A\	.	16bb\LL	16bbb\LL	.
32D/	.	.	.	.	.
32DD/	.	.	16aa\	16aaa\	.
32D/	.	.	.	.	.
32DD/	.	.	16gg\	16ggg\	.
32D/	.	.	.	.	.
32DD/	.	.	16ff#\JJ	16fff#\JJ	.
32D/JJJ	.	.	.	.	.
*	*clefG2	*	*	*	*
=117	=117	=117	=117	=117	=117
32DD/LLL	[2a [2e [2cn/	.	16ee\LL	16eee\LL	.
32D/	.	.	.	.	.
32DD/	.	.	16ff#\	16fff#\	.
32D/	.	.	.	.	.
32DD/	.	.	16gg\	16ggg\	.
32D/	.	.	.	.	.
32DD/	.	.	16ee\JJ	16eee\JJ	.
32D/	.	.	.	.	.
32DD/	.	.	16bb\LL	16bbb\LL	.
32D/	.	.	.	.	.
32DD/	.	.	16aa\	16aaa\	.
32D/	.	.	.	.	.
32DD/	.	.	16gg\	16ggg\	.
32D/	.	.	.	.	.
32DD/	.	.	16ff#\JJ	16fff#\JJ	.
32D/JJJ	.	.	.	.	.
=118	=118	=118	=118	=118	=118
32DD/LLL	4a] 4e] 4c/]	.	16ee\LL	16eee\LL	.
32D/	.	.	.	.	.
32DD/	.	.	16ff#\	16fff#\	.
32D/	.	.	.	.	.
32DD/	.	.	16gg\	16ggg\	.
32D/	.	.	.	.	.
32DD/	.	.	16ee\JJ	16eee\JJ	.
32D/JJJ	.	.	.	.	.
8DD/	8a 8f# 8d 8cn/	.	16ff#\LL	16fff#\LL	.
.	.	.	16aa\	16aaa\	.
8r;	8r;	.	16gg\	16ggg\	.
.	.	.	16ff#\JJ)	16fff#\JJ)	.
*Xtremolo	*	*	*	*X8va	*
*kcancel	*kcancel	*	*kcancel	*kcancel	*
!LO:PB:g=original	!LO:PB:g=original	!	!LO:PB:g=original	!LO:PB:g=original	!
=119||	=119||	=119||	=119||;<	=119||;	=119||
*k[f#]	*k[f#]	*	*k[f#]	*k[f#]	*
*	*	*	*	*8va	*
!	!LO:TX:i:a:t=a tempo	!	!	!	!
!	!LO:TUP:b	!	!	!LO:TX:i:a:t=a tempo	!
4GG 4GGG/	(24d/LL	p	(16g/LL	(16ggg\LL	p
.	24e/	.	.	.	.
.	.	.	16b/JJ	16bbb\JJ	.
.	24d/JJ	.	.	.	.
.	4B/	.	4dd\)	4dddd\)	.
4D 4GG/	.	.	.	.	.
.	8d'/)	.	8b'\	8bbb'\	.
=120	=120	=120	=120	=120	=120
*	*Xtuplet	*	*	*	*
4GG 4GGG/	(24c/LL	.	8a'\L	8aaa'\L	.
.	24d/	.	.	.	.
.	24c/JJ	.	.	.	.
.	4A/	.	8cc'\J	8cccc'\J	.
4E 4GG/	.	.	8ee'\L	8eeee'\L	.
.	8e'/)	.	(16dd\L	(16dddd\L	.
.	.	.	16cc\JJ	16cccc\JJ	.
=121	=121	=121	=121	=121	=121
4GG 4GGG/	(24d/LL	.	16b\LL	16bbb\LL	.
.	24e/	.	.	.	.
.	.	.	16cc\JJ	16cccc\JJ	.
.	24d/JJ	.	.	.	.
.	4B/	.	4dd\)	4dddd\)	.
4D 4GG/	.	.	.	.	.
.	8d'/)	.	8b'\	8bbb'\	.
=122	=122	=122	=122	=122	=122
*	*tuplet	*	*	*	*
!	!LO:TUP:b	!	!	!	!
4GG 4GGG/	(20e/LL	.	8cc'\L	8cccc'\L	.
.	20f#/	.	.	.	.
.	20e/	.	.	.	.
.	.	.	(16b\L	(16bbb\L	.
.	20d/	.	.	.	.
.	.	.	16a\JJ	16aaa\JJ	.
.	20c/JJ	.	.	.	.
*	*Xtuplet	*	*	*	*
4D 4GG/	8B/)	.	8g/)	8ggg\)	.
.	8r	.	8r	8r	.
=123	=123	=123	=123	=123	=123
4GG 4GGG/	(24d/LL	.	(16g/LL	(16ggg\LL	.
.	24e/	.	.	.	.
.	.	.	16b/JJ	16bbb\JJ	.
.	24d/JJ	.	.	.	.
.	4B/	.	4dd\)	4dddd\)	.
4D 4GG/	.	.	.	.	.
.	8d'/)	.	8b'\	8bbb'\	.
!LO:LB:g=original	!LO:LB:g=original	!	!	!	!
=124	=124	=124	=124	=124	=124
4GG 4GGG/	(24c/LL	.	8a'\L	8aaa'\L	.
.	24d/	.	.	.	.
.	24c/JJ	.	.	.	.
.	4A/	.	8cc'\J	8cccc'\J	.
4E 4GG/	.	.	8ee'\L	8eeee'\L	.
.	8e'/)	.	(16dd\L	(16dddd\L	.
.	.	.	16cc\JJ	16cccc\JJ	.
!	!	!	!LO:LB:g=original	!LO:LB:g=original	!
=125	=125	=125	=125	=125	=125
4GG 4GGG/	(24d/LL	.	16b\LL	16bbb\LL	.
.	24e/	.	.	.	.
.	.	.	16cc\JJ	16cccc\JJ	.
.	24d/JJ	.	.	.	.
.	4B/	.	4dd\)	4dddd\)	.
4D 4GG/	.	.	.	.	.
.	8d'/)	.	8b'\	8bbb'\	.
=126	=126	=126	=126	=126	=126
*	*tuplet	*	*	*	*
!	!LO:TUP:b	!	!	!	!
4GG 4GGG/	(20e/LL	.	8cc'\L	8cccc'\L	.
.	20f#/	.	.	.	.
.	20e/	.	.	.	.
.	.	.	(16b\L	(16bbb\L	.
.	20d/	.	.	.	.
.	.	.	16a\JJ	16aaa\JJ	.
.	20c/JJ	.	.	.	.
*	*Xtuplet	*	*	*	*
4D 4GG/	8B/)	.	8g/)	8ggg\)	.
*	*	*	*	*X8va	*
.	8r	.	8r	8r	.
=127	=127	=127	=127	=127	=127
!	!	!	!	!	!LO:DY:b
4D~\	4r	f	(16d/LL	2r	f
.	.	.	16f#/JJ	.	.
.	.	.	4g/	.	.
4C#X~/	4c#X~/	.	.	.	.
.	.	.	16a/LL	.	.
.	.	.	16g/JJ	.	.
=128	=128	=128	=128	=128	=128
4Cn~/	4cn~/	.	16f#/LL	2r	.
.	.	.	16e/	.	.
.	.	.	16d/	.	.
.	.	.	16f#/JJ	.	.
4BB~/	4B~/	.	8a/L)	.	.
.	.	.	8g'/J	.	.
=129	=129	=129	=129	=129	=129
4GG~/	4G~/	.	8b'\	2r	.
.	.	.	4dd^\	.	.
4BB~/	4B~/	.	.	.	.
.	.	.	(16cc#X\LL	.	.
.	.	.	16b\JJ	.	.
=130	=130	=130	=130	=130	=130
4D~\	4d~/	.	8a/L)	2r	.
.	.	.	8f#'/J	.	.
8DD\	8D</	.	8d'/	.	.
8r	8r<	.	8r	.	.
!LO:LB:g=original	!LO:LB:g=original	!LO:LB:g=original	!LO:LB:g=original	!LO:LB:g=original	!
=131	=131	=131	=131	=131	=131
4D~\	4r	.	(16d/LL	2r	.
.	.	.	16f#/JJ	.	.
.	.	.	4g/	.	.
4C#X~/	4c#X~/	.	.	.	.
.	.	.	16a/LL	.	.
.	.	.	16g/JJ	.	.
=132	=132	=132	=132	=132	=132
4Cn~/	4cn~/	.	16f#/LL	2r	.
.	.	.	16e/	.	.
.	.	.	16d/	.	.
.	.	.	16f#/JJ	.	.
4BB~/	4B~/	.	8a/L)	.	.
.	.	.	8g'/J	.	.
=133	=133	=133	=133	=133	=133
4GG~/	4G~/	.	8b'\	2r	.
.	.	.	(4dd^\	.	.
4BB~/	4B~/	.	.	.	.
.	.	.	16cc#X\LL	.	.
.	.	.	16b\JJ	.	.
=134	=134	=134	=134	=134	=134
(<4D\	(>4d/	.	8a/L)	2r	.
.	.	.	8f#'/J	.	.
8DD\)	8D</)	.	8d'/	.	.
8r	8r<	.	8r	.	.
*	*clefF4	*	*	*	*
=135	=135	=135	=135	=135	=135
4GGG/	8DL 8GG/	p	4r	(16gg\LL	p
.	.	.	.	16bb\JJ	.
.	8D 8GG/	.	.	4ddd\)	.
!	!	!	!	!LO:TX:i:b:t=marc.	!
4r	8D 8GG/	.	4g 4B'/	.	.
.	8DJ 8GG/	.	.	8bb'\	.
=136	=136	=136	=136	=136	=136
4GGG/	8DL 8GG/	.	4r	8aa'\L	.
.	8D 8GG/	.	.	8ccc'\J	.
4r	8D 8GG/	.	4a 4d'/	8eee'\L	.
.	8DJ 8GG/	.	.	(16ddd\L	.
.	.	.	.	16ccc\JJ	.
!	!	!	!LO:LB:g=original	!LO:LB:g=original	!
=137	=137	=137	=137	=137	=137
4GGG/	8DL 8GG/	.	4r	16bb\LL	.
.	.	.	.	16ccc\JJ	.
.	8D 8GG/	.	.	4ddd\)	.
4r	8D 8GG/	.	4b 4g'/	.	.
.	8DJ 8GG/	.	.	8bb'\	.
!LO:LB:g=original	!LO:LB:g=original	!	!	!	!
=138	=138	=138	=138	=138	=138
4GGG/	8DL 8GG/	.	8r	8ccc'\L	.
.	8D 8GG/	.	8d'/L	(16bb\L	.
.	.	.	.	16aa\JJ	.
4r	8D 8GG/	.	8g 8B'/	8gg\)	.
.	8DJ 8GG/	.	8aJ 8d'/	8r	.
=139	=139	=139	=139	=139	=139
4GGG/	8DL 8GG/	.	8b 8g'/	(16gg\LL	.
.	.	.	.	16bb\JJ	.
.	8D 8GG/	.	8r	4ddd\)	.
4r	8D 8GG/	.	4g 4B'/	.	.
.	8DJ 8GG/	.	.	8bb'\	.
=140	=140	=140	=140	=140	=140
4GGG/	8DL 8GG/	.	4r	8aa'\L	.
.	8D 8GG/	.	.	8ccc'\J	.
4r	8D 8GG/	.	4a 4d/	8eee'\L	.
.	8DJ 8GG/	.	.	(16ddd\L	.
.	.	.	.	16ccc\JJ	.
=141	=141	=141	=141	=141	=141
4GGG/	8DL 8GG/	.	4r	16bb\LL	.
.	.	.	.	16ccc\JJ	.
.	8D 8GG/	.	.	4ddd\)	.
4r	8D 8GG/	.	4b 4g/	.	.
.	8DJ 8GG/	.	.	8bb'\	.
=142	=142	=142	=142	=142	=142
4GGG/	8DL 8GG/	.	8r	8ccc'\L	.
.	8D 8GG/	.	8aL 8d'/	(16bb\L	.
.	.	.	.	16aa\JJ	.
4r	8DJ 8GG/	.	8b 8g'/	8gg\)	.
.	8r	.	8gJ 8B'/	8r	.
!	!	!	!LO:LB:g=original	!LO:LB:g=original	!
=143	=143	=143	=143	=143	=143
!	!	!	!	!	!LO:DY:b
(16DD/LL	(16D\LL	f	8a 8d/	2r	f
16FF#/JJ	16F#\JJ	.	.	.	.
4GG/)	4G\)	.	8r	.	.
.	.	.	[4dd [4d/	.	.
(16AA/LL	(16A\LL	.	.	.	.
16GG/JJ	16G\JJ	.	.	.	.
!LO:LB:g=original	!LO:LB:g=original	!	!	!	!
=144	=144	=144	=144	=144	=144
16FF#/LL	16F#\LL	.	4dd] 4d/]	2r	.
16EE/	16E\	.	.	.	.
16DD/	16D\	.	.	.	.
16FF#/JJ	16F#\JJ	.	.	.	.
8AA/L)	8A\L)	.	[4dd [4d/	.	.
8GG'/J	8G'\J	.	.	.	.
=145	=145	=145	=145	=145	=145
8BB'/	8B'\	.	4dd] 4d/]	2r	.
(4D/	(4d\	.	.	.	.
.	.	.	[4dd [4d/	.	.
16C#X/LL	16c#X\LL	.	.	.	.
16BB/JJ	16B\JJ	.	.	.	.
=146	=146	=146	=146	=146	=146
8AA/L)	8A\L)	.	4dd] 4d/]	8r	.
*	*	*	*	*8va	*
8FF#'/J	8F#'\J	.	.	(8aaaL 8fff#\	.
8DD/	8D\	.	[4dd [4d/	8bbb 8ddd\)	.
8r	8r	.	.	8gggJ 8eee'\	.
=147	=147	=147	=147	=147	=147
(16DD/LL	(16D\LL	.	4dd] 4d/]	8aaa 8fff#'\	.
16FF#/JJ	16F#\JJ	.	.	.	.
*	*	*	*	*X8va	*
4GG/)	4G\)	.	.	8r	.
.	.	.	[4dd [4d/	4r	.
(16AA/LL	(16A\LL	.	.	.	.
16GG/JJ	16G\JJ	.	.	.	.
=148	=148	=148	=148	=148	=148
16FF#/LL	16F#\LL	.	4dd] 4d/]	2r	.
16EE/	16E\	.	.	.	.
16DD/	16D\	.	.	.	.
16FF#/JJ	16F#\JJ	.	.	.	.
8AA/L)	8A\L)	.	[4dd [4d/	.	.
8GG'/J	8G'\J	.	.	.	.
=149	=149	=149	=149	=149	=149
8BB'/	8B'\	.	4dd] 4d/]	2r	.
(4D/	(4d\	.	.	.	.
.	.	.	[4dd [4d/	.	.
16C#X/LL	16c#X\LL	.	.	.	.
16BB/JJ	16B\JJ	.	.	.	.
!LO:PB:g=original	!LO:PB:g=original	!	!LO:PB:g=original	!LO:PB:g=original	!
=150	=150	=150	=150	=150	=150
8AA/L)	8A\L)	.	4dd] 4d/]	8r	.
*	*	*	*	*8va	*
8FF#'/J	8F#'\J	.	.	(8aaaL 8fff#\	.
8DD/	8D'\	.	4dd 4d/	8bbb 8ddd\)	.
8r	8r	.	.	8fff#J 8ccc'\	.
*	*clefG2	*	*	*	*
=151	=151	=151	=151	=151	=151
*^	*	*	*	*	*
8ryy	8r	4r	ff	(16gg\LL	(16ggg\LL	ff
.	.	.	.	16bb\JJ	16bbb\JJ	.
!LO:TX:i:b:t=con 8va ad libitum:note=kreskowana linia do początku t. 157	!	!	!	!	!	!
8GGGyy'/L	8GG'/L	.	.	4ddd\)	4dddd\)	.
8BBByy'/	8BB'/	4g 4d 4B/	.	.	.	.
8GGGyy'/J	8GG'/J	.	.	8bb'\	8bbb'\	.
=152	=152	=152	=152	=152	=152	=152
8CCyy'/L	8C'/L	4r	.	8aa'\L	8aaa'\L	.
8AAAyy'/	8AA'/	.	.	8ccc'\J	8cccc'\J	.
8CCyy'/	8C'/	4a 4e 4c/	.	8eee'\L	8eeee'\L	.
8EEyy'/J	8E'/J	.	.	(16ddd\L	(16dddd\L	.
.	.	.	.	16ccc\JJ	16cccc\JJ	.
=153	=153	=153	=153	=153	=153	=153
8DDyy'/L	8D'/L	4r	.	16bb\LL	16bbb\LL	.
.	.	.	.	16ccc\JJ	16cccc\JJ	.
8BBByy'/	8BB'/	.	.	4ddd\)	4dddd\)	.
8GGGyy'/	8GG'/	(>4g 4d 4B/	.	.	.	.
8DDDyy'/J	8DD'/J	.	.	8bb'\	8bbb'\	.
=154	=154	=154	=154	=154	=154	=154
8EEEyy'/L	8EE'/L	4a 4d 4c/	.	8ccc'\L	8cccc'\L	.
8FFF#yy'/	8FF#'/	.	.	(16bb\L	(16bbb\L	.
.	.	.	.	16aa\JJ	16aaa\JJ	.
8GGGyy'/	8GG'/	8g) 8d 8B/	.	8gg'\)	8ggg'\)	.
8AAAyy'/J	8AA'/J	8r	.	8r	8r	.
=155	=155	=155	=155	=155	=155	=155
8BBByy'/L	8BB'/L	4r	.	(16gg\LL	(16ggg\LL	.
.	.	.	.	16bb\JJ	16bbb\JJ	.
8GGGyy'/	8GG'/	.	.	4ddd\)	4dddd\)	.
8BBByy'/	8BB'/	4g 4d 4B/	.	.	.	.
8DDyy'/J	8D'/J	.	.	8bb'\	8bbb'\	.
=156	=156	=156	=156	=156	=156	=156
8CCyy'/L	8C'/L	4r	.	8aa'\L	8aaa'\L	.
8AAAyy'/	8AA'/	.	.	8ccc'\J	8cccc'\J	.
8CCyy'/	8C'/	4a 4e 4c/	.	8eee'\L	8eeee'\L	.
8EEyy'/J	8E'/J	.	.	(16ddd\L	(16dddd\L	.
.	.	.	.	16ccc\JJ	16cccc\JJ	.
!	!LO:LB:g=original	!LO:LB:g=original	!	!LO:LB:g=original	!LO:LB:g=original	!
=157	=157	=157	=157	=157	=157	=157
8DDyy'/L	8D'/L	4r	.	8.bb\L)	8.bbb\L)	.
8BBByy'/	8BB'/	.	.	.	.	.
.	.	.	.	(16gg\Jk	(16ggg\Jk	.
8GGGyy'/	8GG'/	(>4g 4d 4B/	.	8ee\L)	8eee\L)	.
8DDDyy'/J	8DD'/J	.	.	([8gg\J	([8ggg\J	.
*v	*v	*	*	*	*	*
*X8ba	*	*	*	*	*
=158	=158	=158	=158	=158	=158
[2D [2DD/	4.a 4.d 4.c/)	.	16gg\LL]	16ggg\LL]	.
.	.	.	16ee\	16eee\	.
.	.	.	16ff#\	16fff#\	.
.	.	.	16gg\JJ	16ggg\JJ	.
.	.	.	8ff#\L)	8fff#\L)	.
.	8r	.	8aa'\J	8aaa'\J	.
=159	=159	=159	=159	=159	=159
8D]L 8DD/]	4r	.	(16gg\LL	(16ggg\LL	.
.	.	.	16bb\JJ	16bbb\JJ	.
8BB'/	.	.	4ddd\)	4dddd\)	.
8GG'/	(4g 4d 4B/	.	.	.	.
8DD'/J	.	.	8bb'\	8bbb'\	.
=160	=160	=160	=160	=160	=160
[2D [2DD/	4.a 4.d 4.c/)	.	(16gg\LL	(16ggg\LL	.
.	.	.	16ee\	16eee\	.
.	.	.	16ff#\	16fff#\	.
.	.	.	16gg\JJ	16ggg\JJ	.
.	.	.	8ff#\L)	8fff#\L)	.
.	8r	.	8aa'\J	8aaa'\J	.
=161	=161	=161	=161	=161	=161
8D]L 8DD/]	8r	.	(16gg\LL	(16ggg\LL	.
.	.	.	16bb\JJ	16bbb\JJ	.
8BB'/	4g 4d 4B/	.	4ddd\)	4dddd\)	.
8GG'/	.	.	.	.	.
8DD'/J	(8g [>8d (8B/	.	8bb'\	8bbb'\	.
=162	=162	=162	=162	=162	=162
[2D [2DD/	8a 8d] 8c/))	.	(16gg\LL	(16ggg\LL	.
.	.	.	16ee\	16eee\	.
.	4a 4d 4c/	.	16ff#\	16fff#\	.
.	.	.	16gg\JJ	16ggg\JJ	.
.	.	.	16ff#\LL	16fff#\LL	.
.	.	.	16gg\	16ggg\	.
.	[8a [>8d [8c/	.	16aa\	16aaa\	.
.	.	.	16bb\JJ	16bbb\JJ	.
=163	=163	=163	=163	=163	=163
4.D] 4.DD/]	4.a] 4.d] 4.c/]	.	8ccc\)	16cccc\LL)	.
.	.	.	.	16ddd\J	.
.	.	.	8r	([8eee\J	.
.	.	.	16r	16eee\LL]	.
.	.	.	(16ff#\LL	16fff#\	.
8r	8r	.	16ee\	16eee\	.
.	.	.	16ff#\JJ	16fff#\JJ	.
!	!	!	!LO:LB:g=original	!LO:LB:g=original	!
=164	=164	=164	=164	=164	=164
!	!LO:TX:B:b:t=1	!	!	!	!
2r	2r	.	16ee\LL	16eee\LL	>
.	.	.	16ff#\	16fff#\	.
.	.	.	16ee\	16eee\	.
.	.	.	16ff#\JJ	16fff#\JJ	.
.	.	.	16ee\LL	16eee\LL	.
.	.	.	16ff#\	16fff#\	.
.	.	.	16ee\	16eee\	.
.	.	.	16ff#\JJ	16fff#\JJ)	]
*	*	*	*	*X8va	*
!LO:LB:g=original	!LO:LB:g=original	!	!	!	!
=165	=165	=165	=165	=165	=165
*tremolo	*	*	*	*	*
!	!	!LO:DY:b	!	!	!
32DD/LLL	4r	p	16ee\)	2eeeTT\	p
32D/	.	.	.	.	.
32DD/	.	.	16r	.	.
32D/	.	.	.	.	.
32DD/	.	.	8b\	.	.
32D/	.	.	.	.	.
32DD/	.	.	.	.	.
32D/	.	.	.	.	.
!	!	!	!	!LO:TX:i:b:t=marc.	!
32DD/	8r	.	[4a/	.	.
32D/	.	.	.	.	.
32DD/	.	.	.	.	.
32D/	.	.	.	.	.
!	!LO:TX:i:b:t=marc.	!	!	!	!
32DD/	8A'/	.	.	.	.
32D/	.	.	.	.	.
32DD/	.	.	.	.	.
32D/JJJ	.	.	.	.	.
=166	=166	=166	=166	=166	=166
*	*^	*	*	*	*
32DD/LLL	8r	[2c\	.	2a/_	2eeeTTT\	.
32D/	.	.	.	.	.	.
32DD/	.	.	.	.	.	.
32D/	.	.	.	.	.	.
!	!LO:TX:i:a:t=marc.	!	!	!	!	!
32DD/	8f#'/L	.	.	.	.	.
32D/	.	.	.	.	.	.
32DD/	.	.	.	.	.	.
32D/	.	.	.	.	.	.
32DD/	8e'/	.	.	.	.	.
32D/	.	.	.	.	.	.
32DD/	.	.	.	.	.	.
32D/	.	.	.	.	.	.
32DD/	8f#'/J	.	.	.	.	.
32D/	.	.	.	.	.	.
32DD/	.	.	.	.	.	.
32D/JJJ	.	.	.	.	.	.
=167	=167	=167	=167	=167	=167	=167
32DD/LLL	4e/ 4c/]	4ryy	.	8a/L]	2eeeTTT\	.
32D/	.	.	.	.	.	.
32DD/	.	.	.	.	.	.
32D/	.	.	.	.	.	.
32DD/	.	.	.	8b'/J	.	.
32D/	.	.	.	.	.	.
32DD/	.	.	.	.	.	.
32D/	.	.	.	.	.	.
32DD/	4rgg	8rg	.	[4a/	.	.
32D/	.	.	.	.	.	.
32DD/	.	.	.	.	.	.
32D/	.	.	.	.	.	.
32DD/	.	8A'/	.	.	.	.
32D/	.	.	.	.	.	.
32DD/	.	.	.	.	.	.
32D/JJJ	.	.	.	.	.	.
=168	=168	=168	=168	=168	=168	=168
32DD/LLL	8r	[2c\	.	2a/_	2eeeTTT\	.
32D/	.	.	.	.	.	.
32DD/	.	.	.	.	.	.
32D/	.	.	.	.	.	.
32DD/	8f#'/L	.	.	.	.	.
32D/	.	.	.	.	.	.
32DD/	.	.	.	.	.	.
32D/	.	.	.	.	.	.
32DD/	8e'/	.	.	.	.	.
32D/	.	.	.	.	.	.
32DD/	.	.	.	.	.	.
32D/	.	.	.	.	.	.
32DD/	8f#'/J	.	.	.	.	.
32D/	.	.	.	.	.	.
32DD/	.	.	.	.	.	.
32D/JJJ	.	.	.	.	.	.
*Xtremolo	*	*	*	*	*	*
=169	=169	=169	=169	=169	=169	=169
!	!	!	!	!	!	!LO:HP:b:t=cresc.
4D 4DD/	4e/ 4c/]	4ryy	.	8a/L]	2eeeTTT\	<
.	.	.	.	8b'/J	.	.
!	!	!	!LO:HP:b:i:t=cresc.	!	!	!
8r	8r	8ryy	<	[4a/	.	.
8D\	8f# 8A'/	8ryy	.	.	.	.
*	*v	*v	*	*	*	*
=170	=170	=170	=170	=170	=170
4DD/	4e 4c/	.	8a/L]	2eeeTTT\	.
.	.	.	8b'/J	.	.
8r	8r	.	[4a/	.	.
8D\	8f# 8A/	.	.	.	.
=171	=171	=171	=171	=171	=171
4DD/	4e 4c/	.	8a/L]	2eeeTTT\	.
.	.	.	8b'/J	.	.
8r	8r	.	[4a/	.	.
8D\	8f# 8A/	.	.	.	.
!LO:LB:g=original	!LO:LB:g=original	!	!LO:LB:g=original	!LO:LB:g=original	!
=172	=172	=172	=172	=172	=172
4DD/	4e 4c/	.	8a/L]	([4eee\	.
.	.	.	8b'/	.	.
4D 4DD/	4f# 4d 4c/	.	8a'/	16eee\LL]	.
.	.	.	.	16ddd\	.
.	.	.	8b'/J	16eee\	.
.	.	.	.	16fff#\JJ)	.
=173	=173	=173	=173	=173	=173
!	!LO:TX:B:a:t=Più mosso.	!	!	!	!
4GG 4GGG/	4d 4B 4G/	.	8g/	8ggg\	.
!	!	!	!	!LO:TX:B:a:t=Più mosso.	!
.	.	.	(4gg\	(4ggg\	ff
[4GG [4GGG/	[4d [4B [4G/	.	.	.	.
.	.	.	16ff#\LL	16fff#\LL	.
.	.	.	16ee\JJ	16eee\JJ	.
=174	=174	=174	=174	=174	=174
8GG]L 8GGG/]	4d] 4B] 4G/]	.	16dd\LL	16ddd\LL	.
.	.	.	16cc#X\	16ccc#X\	.
8DD/	.	.	16ee\	16eee\	.
.	.	.	16dd\JJ	16ddd\JJ	.
8GG/	4e 4A 4G/	.	16cc#\LL	16ccc#\LL	.
.	.	.	16a\	16aa\	.
8DD/J	.	.	16b\	16bb\	.
.	.	.	16cc#\JJ	16ccc#\JJ	.
=175	=175	=175	=175	=175	=175
4GG 4GGG/	4d 4B 4G/	.	8dd\)	8ddd\)	.
.	.	.	(4dd^\	4ddd^\	.
[4GG [4GGG/	[4d [4B [4G^>/	.	.	.	.
.	.	.	16b/LL	(16bb\LL	.
.	.	.	16a/JJ	16aa\JJ	.
=176	=176	=176	=176	=176	=176
8GG]L 8GGG/]	4d] 4B] 4G/]	.	8g/)	16gg\LL	.
.	.	.	.	16ff#\	.
8DD/	.	.	8r	16ee\	.
.	.	.	.	16dd\JJ	.
8GG/	4e 4A 4G/	.	4r	16cc#X\LL	.
.	.	.	.	16a\	.
8DD/J	.	.	.	16b\	.
.	.	.	.	16cc#\JJ	.
=177	=177	=177	=177	=177	=177
4GG 4GGG/	4d 4B 4G/	.	2r	8dd\)	.
.	.	.	.	(4dd^\	.
*	*clefF4	*	*	*	*
[4GG [4GGG/	[4B [4G [4D^\	.	.	.	.
.	.	.	.	16b/LL	.
.	.	.	.	16a/JJ	.
!	!	!	!LO:LB:g=original	!LO:LB:g=original	!
=178	=178	=178	=178	=178	=178
8GG]L 8GGG/]	4B] 4G] 4D\]	.	2r	16g/LL	>
.	.	.	.	16f#/	.
8DD/	.	.	.	16e/	.
.	.	.	.	16d/JJ	.
8GG/	4G 4E 4AA\	.	.	16c#X/LL	.
.	.	.	.	16A/	.
8DD/J	.	.	.	16B/	]
.	.	.	.	16c#/JJ	.
!LO:LB:g=original	!LO:LB:g=original	!	!	!	!
=179	=179	=179	=179	=179	=179
8GG 8GGG/	16GLL 16D 16BB\	<	2r	(16d/LL)	.
!	!LO:TX:i:a:t=stringendo molto	!	!	!LO:TX:i:a:t=stringendo molto	!
.	(16D\	.	.	16d/	<
8r	16E\	.	.	16e/	.
.	16F#\JJ	.	.	16f#/JJ	.
4r	16G\LL	.	.	16g/LL	.
.	16D\	.	.	16d/	.
.	16E\	.	.	16e/	.
.	16F#\JJ	.	.	16f#/JJ	.
=180	=180	=180	=180	=180	=180
2r	16G\LL	.	4r	16g/LL	.
.	16D\	.	.	16d/	.
.	16E\	.	.	16e/	.
.	16F#\JJ	.	.	16f#/JJ	.
.	16G/LL	.	16r	16g/LL	.
.	16AA/	.	(16A/LL	16a/	.
.	16BB/	.	16B/	16b/	[
.	16C#X/JJ	[	16c#X/JJ	16cc#X/JJ	.
=181	=181	=181	=181	=181	=181
4r	16D\LL)	.	16d/LL)	16dd\LL)	.
.	(16D\	<	(16d/	(16dd\	.
.	16E\	.	16e/	16ee\	.
.	16F#\JJ	.	16f#/JJ	16ff#\JJ	.
16r	16G\LL	.	16g/LL	16gg\LL	.
(16DD/LL	16D\	.	16d/	16dd\	.
16EE/	16E\	.	16e/	16ee\	.
16FF#/JJ	16F#\JJ	.	16f#/JJ	16ff#\JJ	.
=182	=182	=182	=182	=182	=182
16GG/LL	16G\LL	.	16g/LL	16gg\LL	.
16DD/	16D\	.	16d/	16dd\	.
16EE/	16E\	.	16e/	16ee\	.
16FF#/JJ	16F#\JJ	.	16f#/JJ	16ff#\JJ	.
16GG/LL	16G\LL	.	16g/LL	16gg\LL	.
16AA/	16A\	.	16a/	16aa\	.
16BB/	16B\	.	16b/	16bb\	.
16C#X/JJ	16c#X\JJ	[	16cc#X/JJ	16ccc#X\JJ	.
=183	=183	=183	=183	=183	=183
8D\)	8d\)	.	8dd\)	8ddd\)	.
8r	8r	.	4dd^\	4ddd^\	ff
!	!LO:TX:b:i:t=presto	!	!	!	!
[4GG [4GGG/	[4d [4B [4G [4D\	ff	.	.	.
!	!	!	!	!LO:TX:i:b:t=presto	!
.	.	.	(16cc#X\LL	(16ccc#X\LL	.
.	.	.	16ee\JJ	16eee\JJ	.
!LO:LB:g=original	!LO:LB:g=original	!	!LO:LB:g=original	!LO:LB:g=original	!
=184	=184	=184	=184	=184	=184
4GG] 4GGG/]	4d] 4B] 4G] 4D\]	.	8dd\)	8ddd\)	.
.	.	.	4dd^\	4ddd^\	.
[4GG [4GGG/	[4d [4B [4G [4D\	.	.	.	.
.	.	.	(16cc#X\LL	(16ccc#X\LL	.
.	.	.	16ee\JJ	16eee\JJ	.
=185	=185	=185	=185	=185	=185
4GG] 4GGG/]	4d] 4B] 4G] 4D\]	.	8dd\L)	8ddd\L)	.
.	.	.	(16cc#X\L	(16ccc#X\L	.
.	.	.	16ee\JJ	16eee\JJ	.
[4GG [4GGG/	[4d [4B [4G [4D\	.	8dd\L)	8ddd\L)	.
.	.	.	(16cc#\L	(16ccc#\L	.
.	.	.	16ee\JJ	16eee\JJ	.
=186	=186	=186	=186	=186	=186
4GG] 4GGG/]	4d] 4B] 4G] 4D\]	.	8dd\L)	8ddd\L)	.
.	.	.	(16cc#X\L	(16ccc#X\L	.
.	.	.	16ee\JJ	16eee\JJ	.
[4GG [4GGG/	[4d [4B [4G [4D\	.	(16dd\LL)	(16ddd\LL)	.
.	.	.	16dd\	16ddd\	.
.	.	.	16ee\	16eee\	.
.	.	.	16ff#\JJ	16fff#\JJ	.
=187	=187	=187	=187	=187	=187
8GG] 8GGG/]	8d] 8B] 8G] 8D\]	.	8gg\)	8ggg\)	.
8r	8r	.	8r	8r	.
*	*	*	*	*8va	*
4GG 4GGG/	4d 4B 4G 4D\	.	4gg 4dd 4b\	4bbb 4ddd 4bb\	.
=188	=188	=188	=188	=188	=188
4r	4r	.	4r	4r	.
4GG 4GGG/	4d 4B 4G 4D\	.	4gg 4dd 4b\	4ggg 4ddd 4bb\	.
*	*	*	*	*X8va	*
=189	=189	=189	=189	=189	=189
4r	4r	.	4r	4r	.
4GG 4GGG/	4d 4B 4G 4D\	.	4b 4g/	4bb 4gg 4dd\	.
=190	=190	=190	=190	=190	=190
4GG 4GGG/	4d 4B 4G 4D\	.	4b 4g/	4gg 4dd\	.
4GG 4GGG/	4d 4B 4G 4D\	.	4b 4g/	4bb 4gg 4dd\	.
=191	=191	=191	=191	=191	=191
4GG 4GGG/	4d 4B 4G 4D\	.	4b 4g/	4gg 4dd\	.
4r	4r	.	4r	4r	.
==	==	==	==	==	==
*-	*-	*-	*-	*-	*-
!!!system-decoration: {(s1,s2)}{(s3,s4)}
!!!ENC: Marta Opryszak
!!!END: 2022-03-07
!!!AIN: 2 piano
!!!ENC: Kamil Watkowski
!!!END: 2022-03-11
!!!RDF**kern: > = above
!!!RDF**kern: < = below
